!!!ONB: MCCC : ILB0186_02 : Extracted Monophonic Melody
!!!COM: Beethoven, Ludwig van
!!!OPR: Piano Sonata No.25
!!!OMV: 2
!!!SCT: Op.79
!!!ODT: 1809///
**kern
*thru
*staff1
*Ipiano
*clefG2
*k[b-e-]
*g:
*M9/8
*MM72
=1
4.g
4b-
8cc
4dd
8dd
=2
4dd
8b-
4g
8b-
4.a
=3
4.g
4b-
8cc
4dd
8dd
=4
4dd
8b-
8cc
8ee-
8a
4.b-
=5
4dd
8b-
4cc
8dd
4ee-
8ee-
=6
4ee-
8cc
8a
8cc
8a
8b-
8b-
8cc
=7
4dd
8b-
4cc
8dd
4ee-
8ee-
=8
4ee-
8cc
8a
8cc
8a
4.g
=9
4r
8r
4.B-
4.d
=10
*k[b-e-a-]
8e-
8r
8r
8r
8g
8g
8g
8b-
8b-
=11
8ee-
8dd
8cc
8b-
8a-
8g
4b-
8a-
=12
8ff
8ee-
8dd
8cc
8b-
8a-
4f#
8g
=13
4f
16a-
16g
16f
16g
16a-
16b-
16cc
16b-
8b-
8ee-
8g
=14
4ff
16aa-
16gg
16ff
16gg
16aa-
16bb-
16ccc
16bb-
8bb-
8eee-
8gg
=15
8ff
8aa-
8ccc
8dd
8ff
8bb-
4aa-
8gg
=16
8f
8a-
8cc
8e-
8g
8b-
8A-
8B-
8d
=17
4.e-
8r
8ee-
8ee-
4ee-
8cc
=18
4.b-
4g
8b-
8b-
8a-
24g
24b-
24a-
=19
4.g
24e-
24f
24e-
32d
32e-
32f
32g
40a-
40b-
40cc
40dd
40ee-
16ff
16ee-
16dd
16cc
16ee-
16cc
=20
4.b-
4g
8b-
8.g
16b-
16a
16g
=21
*k[b-e-]
4.f#
4a
8b-
16cc
16ee-
16dd
16cc
16b-
16a
=22
4.g
4b-
8cc
4dd
8dd
=23
4dd
8b-
4g
8b-
4.a
=24
4.g
4b-
8cc
4dd
8dd
=25
4dd
8b-
8cc
8ee-
8a
4.b-
=26
4dd
8b-
4cc
8dd
4ee-
8ee-
=27
4ee-
8cc
8a
8cc
8a
8b-
8b-
8cc
=28
4dd
8b-
4cc
8dd
4ee-
8ee-
=29
4ee-
8cc
8a
8cc
8a
4.g
=30
4.gg
4bb-
8ccc
4ddd
8ddd
=31
4ddd
8bb-
4gg
8bb-
4.aa
=32
4ccc
8aa
4ff#
8aa
4.gg
=33
4cc
8a
4r
8r
4f#
8a
=34
4f#
8r
4g
8r
4r
8r
==
*-
